; generated by PrusaSlicer 2.5.0+win64 on 2022-11-26 at 21:42:40 UTC


;
;

;
;
; 

; external perimeters extrusion width = 0.45mm
; perimeters extrusion width = 0.45mm
; infill extrusion width = 0.45mm
; solid infill extrusion width = 0.45mm
; top infill extrusion width = 0.40mm
; first layer extrusion width = 0.42mm

; external perimeters extrusion width = 0.45mm
; perimeters extrusion width = 0.45mm
; infill extrusion width = 0.45mm
; solid infill extrusion width = 0.45mm
; top infill extrusion width = 0.40mm
; first layer extrusion width = 0.42mm

M73 P0 R140
M73 Q0 S141
M107
;TYPE:Custom
M862.3 P "MK3S" ; printer model check
M862.1 P0.4 ; nozzle diameter check
M115 U3.10.0 ; tell printer latest fw version
G90 ; use absolute coordinates
M83 ; extruder relative mode
M104 S240 ; set extruder temp
M140 S85 ; set bed temp
M190 S85 ; wait for bed temp
M109 S240 ; wait for extruder temp
G28 W ; home all without mesh bed level
G80 ; mesh bed leveling
G1 Z0.2 F720
G1 Y-3 F1000 ; go outside print area
G92 E0
G1 X60 E9 F1000 ; intro line
G1 X100 E12.5 F1000 ; intro line
G92 E0
M221 S95

; Don't change E values below. Excessive value can damage the printer.
M907 E430 ; set extruder motor current
G21 ; set units to millimeters
G90 ; use absolute coordinates
M83 ; use relative distances for extrusion
M600
T0
M900 K0.08 ; Filament gcode LA 1.5
M900 K45 ; Filament gcode LA 1.0
M107
;LAYER_CHANGE
;Z:0.2
;HEIGHT:0.2
;BEFORE_LAYER_CHANGE
G92 E0.0
;0.2


G1 E-1.2 F2100
G1 Z.2 F720
;AFTER_LAYER_CHANGE
;0.2
G1 Z.4
G1 X50.777 Y49.966 F10800
G1 Z.2 F720
G1 E1.2 F2100
M204 S800
;TYPE:Skirt/Brim
;WIDTH:0.42
G1 F1200
G1 X51.483 Y49.372 E.02806
G1 X52.215 Y48.978 E.02527
G1 X52.982 Y48.74 E.02444
G1 X53.85 Y48.648 E.02654
G1 X196.337 Y48.655 E4.33354
G1 X197.018 Y48.74 E.02087
G1 X197.676 Y48.933 E.02088
G1 X198.677 Y49.484 E.03475
G1 X199.566 Y50.373 E.03821
G1 X200.117 Y51.374 E.03476
G1 X200.31 Y52.032 E.02088
G1 X200.402 Y52.9 E.02653
G1 X200.402 Y157.1 E3.1691
G1 X200.31 Y157.968 E.02653
G1 X200.117 Y158.626 E.02088
G1 X199.758 Y159.345 E.02444
G1 X199.223 Y160.034 E.02653
G1 X198.517 Y160.628 E.02806
G1 X197.785 Y161.022 E.02527
G1 X197.018 Y161.26 E.02444
G1 X196.15 Y161.352 E.02654
G1 X53.85 Y161.352 E4.32787
G1 X52.982 Y161.26 E.02653
G1 X52.324 Y161.067 E.02088
G1 X51.605 Y160.708 E.02444
G1 X50.916 Y160.173 E.02653
G1 X50.322 Y159.467 E.02807
G1 X49.928 Y158.735 E.02527
G1 X49.69 Y157.968 E.02444
G1 X49.598 Y157.1 E.02653
G1 X49.598 Y52.9 E3.1691
G1 X49.69 Y52.032 E.02653
G1 X49.883 Y51.374 E.02088
G1 X50.242 Y50.655 E.02444
G1 X50.74 Y50.013 E.0247
M204 S1000
; printing object top cover id:0 copy 0
;WIPE_START
G1 F8640
G1 X51.483 Y49.372 E-.22661
G1 X52.215 Y48.978 E-.19185
G1 X52.982 Y48.74 E-.18554
G1 X53.85 Y48.648 E-.20146
G1 X55.299 Y48.648 E-.33454
;WIPE_END
G1 E-.06 F2100
G1 Z.4 F720
G1 X192.462 Y153.412 F10800
G1 Z.2 F720
G1 E1.2 F2100
M204 S800
;TYPE:Perimeter
G1 F1200
G1 X152.788 Y153.412 E1.20664
G1 X152.788 Y113.738 E1.20664
G1 X192.462 Y113.738 E1.20664
M73 P0 R139
G1 X192.462 Y153.352 E1.20481
M204 S1000
G1 X192.085 Y153.035 F10800
M204 S800
;TYPE:External perimeter
G1 F1200
G1 X153.165 Y153.035 E1.1837
G1 X153.165 Y114.115 E1.1837
G1 X192.085 Y114.115 E1.1837
G1 X192.085 Y152.975 E1.18188
M204 S1000
G1 X192.189 Y153.421 F10800
;WIPE_START
G1 F8640
G1 X187.148 Y152.983 E-1.14
;WIPE_END
G1 E-.06 F2100
G1 Z.4 F720
G1 X148.409 Y71.244 F10800
G1 Z.2 F720
G1 E1.2 F2100
M204 S800
;TYPE:Perimeter
G1 F1200
G1 X149.314 Y70.392 E.03779
G1 X150.023 Y69.791 E.02827
G1 X150.716 Y69.257 E.02662
G1 X151.712 Y68.56 E.03697
G1 X152.35 Y68.158 E.02292
G1 X153.522 Y67.501 E.04088
G1 X154.567 Y66.995 E.03532
G1 X155.429 Y66.63 E.02845
G1 X156.249 Y66.326 E.02662
G1 X157.408 Y65.957 E.03697
G1 X158.129 Y65.766 E.0227
G1 X159.353 Y65.503 E.03808
G1 X160.592 Y65.315 E.03812
G1 X161.528 Y65.222 E.02861
G1 X162.229 Y65.181 E.02134
G1 X163.047 Y65.164 E.02488
G1 X164.317 Y65.198 E.03866
G1 X165.02 Y65.252 E.02144
G1 X165.888 Y65.353 E.02657
G1 X167.089 Y65.549 E.03702
G1 X168.075 Y65.767 E.03071
G1 X169.126 Y66.055 E.03313
G1 X170.442 Y66.502 E.04226
G1 X171.095 Y66.762 E.02139
G1 X171.74 Y67.043 E.02139
G1 X172.983 Y67.662 E.04224
G1 X173.855 Y68.161 E.03054
G1 X174.773 Y68.75 E.03318
G1 X175.351 Y69.156 E.02148
G1 X176.443 Y70.01 E.04218
G1 X176.977 Y70.473 E.02149
G1 X177.798 Y71.25 E.03438
G1 X178.461 Y71.944 E.02919
G1 X178.924 Y72.471 E.02133
G1 X179.465 Y73.132 E.02599
G1 X180.208 Y74.141 E.0381
G1 X180.888 Y75.193 E.0381
G1 X181.305 Y75.915 E.02534
G1 X181.933 Y77.152 E.0422
G1 X182.221 Y77.795 E.02142
G1 X182.537 Y78.581 E.02579
G1 X182.944 Y79.759 E.0379
G1 X183.282 Y80.972 E.0383
G1 X183.467 Y81.792 E.02554
G1 X183.699 Y83.16 E.04221
G1 X183.782 Y83.859 E.02142
G1 X183.85 Y84.698 E.02559
G1 X183.887 Y85.95 E.0381
G1 X183.85 Y87.202 E.0381
G1 X183.782 Y88.041 E.02559
G1 X183.699 Y88.74 E.02142
G1 X183.467 Y90.108 E.04221
G1 X183.282 Y90.928 E.02554
G1 X182.944 Y92.141 E.0383
G1 X182.537 Y93.319 E.0379
G1 X182.221 Y94.105 E.02579
G1 X181.933 Y94.748 E.02142
G1 X181.305 Y95.985 E.0422
G1 X180.888 Y96.707 E.02534
G1 X180.208 Y97.759 E.0381
G1 X179.465 Y98.768 E.0381
G1 X178.924 Y99.429 E.02599
G1 X178.461 Y99.956 E.02133
G1 X177.798 Y100.65 E.02919
G1 X176.977 Y101.427 E.03438
G1 X176.447 Y101.886 E.02134
G1 X175.9 Y102.329 E.02139
G1 X174.777 Y103.147 E.04226
G1 X173.855 Y103.739 E.03333
G1 X172.983 Y104.238 E.03054
G1 X171.74 Y104.857 E.04224
G1 X171.091 Y105.14 E.02154
G1 X169.793 Y105.63 E.04218
G1 X169.121 Y105.846 E.02147
G1 X168.075 Y106.133 E.03299
G1 X167.093 Y106.35 E.03059
G1 X166.399 Y106.474 E.02146
G1 X165.023 Y106.648 E.04218
G1 X164.318 Y106.702 E.0215
G1 X163.102 Y106.737 E.03698
G1 X162.228 Y106.719 E.02659
G1 X161.528 Y106.678 E.02133
G1 X160.592 Y106.585 E.02861
G1 X159.353 Y106.397 E.03812
G1 X158.129 Y106.134 E.03808
G1 X157.412 Y105.944 E.02257
G1 X156.738 Y105.74 E.0214
G1 X155.431 Y105.271 E.04223
G1 X154.567 Y104.905 E.02854
G1 X153.522 Y104.399 E.03532
G1 X152.35 Y103.742 E.04088
G1 X151.711 Y103.34 E.02294
G1 X150.577 Y102.542 E.04219
G1 X150.021 Y102.107 E.02144
G1 X149.314 Y101.508 E.02821
G1 X148.401 Y100.649 E.03812
G1 X147.543 Y99.737 E.03808
G1 X147.052 Y99.163 E.02297
G1 X146.614 Y98.612 E.0214
G1 X145.806 Y97.483 E.04222
G1 X145.31 Y96.703 E.02814
G1 X144.731 Y95.681 E.03572
G1 X144.146 Y94.485 E.04048
G1 X143.846 Y93.784 E.02319
G1 X143.591 Y93.128 E.0214
G1 X143.156 Y91.81 E.04222
G1 X142.916 Y90.923 E.02794
G1 X142.666 Y89.769 E.03592
G1 X142.465 Y88.46 E.04028
G1 X142.386 Y87.695 E.02339
G1 X142.339 Y86.995 E.02133
G1 X142.313 Y85.95 E.03179
G1 X142.339 Y84.905 E.03179
G1 X142.386 Y84.205 E.02133
G1 X142.465 Y83.44 E.02339
G1 X142.666 Y82.131 E.04028
G1 X142.916 Y80.977 E.03592
G1 X143.156 Y80.09 E.02794
G1 X143.591 Y78.772 E.04222
G1 X143.846 Y78.116 E.0214
G1 X144.146 Y77.415 E.02319
G1 X144.731 Y76.219 E.04048
G1 X145.31 Y75.198 E.03572
G1 X145.806 Y74.417 E.02814
G1 X146.614 Y73.288 E.04223
G1 X147.052 Y72.737 E.0214
G1 X147.543 Y72.163 E.02297
G1 X148.367 Y71.287 E.03659
M204 S1000
G1 X148.668 Y71.518 F10800
M204 S800
;TYPE:External perimeter
G1 F1200
G1 X149.565 Y70.673 E.03747
G1 X150.26 Y70.085 E.0277
G1 X150.939 Y69.561 E.02609
G1 X151.921 Y68.874 E.03642
G1 X152.542 Y68.483 E.02235
G1 X153.696 Y67.835 E.04024
G1 X154.723 Y67.338 E.03469
M73 Q0 S140
G1 X155.568 Y66.981 E.0279
G1 X156.372 Y66.683 E.02609
G1 X157.513 Y66.319 E.03642
G1 X158.217 Y66.133 E.02214
G1 X159.421 Y65.874 E.03746
G1 X160.639 Y65.689 E.03747
G1 X161.558 Y65.598 E.02808
G1 X162.244 Y65.558 E.02089
G1 X163.045 Y65.542 E.02439
G1 X164.298 Y65.575 E.03811
G1 X164.984 Y65.627 E.02093
G1 X165.836 Y65.726 E.02607
G1 X167.018 Y65.92 E.03644
G1 X167.985 Y66.133 E.03011
G1 X169.015 Y66.416 E.0325
G1 X170.311 Y66.856 E.04163
G1 X170.95 Y67.11 E.02091
G1 X171.58 Y67.385 E.02091
G1 X172.805 Y67.995 E.04162
G1 X173.659 Y68.484 E.02992
G1 X174.563 Y69.063 E.03265
G1 X175.126 Y69.459 E.02094
G1 X176.203 Y70.302 E.0416
G1 X176.724 Y70.753 E.02094
G1 X177.532 Y71.518 E.03384
G1 X178.183 Y72.199 E.02867
G1 X178.637 Y72.715 E.02089
G1 X179.167 Y73.364 E.02549
G1 X179.897 Y74.356 E.03747
G1 X180.566 Y75.39 E.03746
G1 X180.973 Y76.095 E.02474
G1 X181.593 Y77.314 E.04161
G1 X181.874 Y77.942 E.02092
G1 X182.184 Y78.713 E.02529
G1 X182.584 Y79.872 E.03727
G1 X182.917 Y81.064 E.03766
G1 X183.097 Y81.865 E.02494
G1 X183.326 Y83.213 E.04161
G1 X183.406 Y83.897 E.02092
G1 X183.473 Y84.719 E.02509
G1 X183.51 Y85.95 E.03746
G1 X183.473 Y87.181 E.03746
G1 X183.406 Y88.003 E.02509
G1 X183.326 Y88.687 E.02092
G1 X183.097 Y90.035 E.04161
G1 X182.917 Y90.836 E.02494
G1 X182.584 Y92.028 E.03766
G1 X182.184 Y93.187 E.03727
G1 X181.874 Y93.958 E.02529
G1 X181.593 Y94.586 E.02092
G1 X180.973 Y95.805 E.04161
G1 X180.566 Y96.51 E.02474
G1 X179.897 Y97.544 E.03746
G1 X179.167 Y98.536 E.03747
G1 X178.637 Y99.185 E.02549
G1 X178.183 Y99.701 E.02089
G1 X177.532 Y100.382 E.02867
G1 X176.724 Y101.147 E.03384
G1 X176.205 Y101.597 E.02089
G1 X175.67 Y102.03 E.02091
G1 X174.564 Y102.836 E.04163
G1 X173.659 Y103.416 E.0327
G1 X172.805 Y103.905 E.02992
G1 X171.58 Y104.515 E.04162
G1 X170.949 Y104.791 E.02096
G1 X169.669 Y105.274 E.0416
G1 X169.014 Y105.485 E.02094
G1 X167.985 Y105.767 E.03245
G1 X167.019 Y105.98 E.03006
G1 X166.342 Y106.101 E.02093
G1 X164.985 Y106.273 E.0416
G1 X164.298 Y106.325 E.02095
G1 X163.101 Y106.36 E.03643
G1 X162.243 Y106.342 E.02608
G1 X161.558 Y106.302 E.02089
G1 X160.639 Y106.211 E.02808
G1 X159.421 Y106.026 E.03747
G1 X158.217 Y105.767 E.03746
G1 X157.515 Y105.581 E.02209
G1 X156.857 Y105.382 E.02091
G1 X155.569 Y104.92 E.04162
G1 X154.723 Y104.562 E.02793
G1 X153.696 Y104.065 E.03469
G1 X152.542 Y103.417 E.04024
G1 X151.92 Y103.026 E.02236
G1 X150.802 Y102.239 E.0416
G1 X150.26 Y101.815 E.02093
G1 X149.565 Y101.227 E.02768
G1 X148.668 Y100.382 E.03747
G1 X147.824 Y99.485 E.03746
G1 X147.343 Y98.923 E.02249
G1 X146.915 Y98.385 E.02091
G1 X146.118 Y97.272 E.04162
G1 X145.633 Y96.508 E.02753
G1 X145.064 Y95.505 E.03508
G1 X144.489 Y94.328 E.03985
G1 X144.195 Y93.642 E.0227
G1 X143.946 Y93.001 E.02091
G1 X143.517 Y91.701 E.04162
G1 X143.283 Y90.834 E.02733
G1 X143.037 Y89.7 E.03528
G1 X142.839 Y88.412 E.03965
G1 X142.762 Y87.663 E.0229
G1 X142.716 Y86.977 E.02089
G1 X142.69 Y85.95 E.03126
G1 X142.716 Y84.923 E.03126
G1 X142.762 Y84.237 E.02089
G1 X142.839 Y83.488 E.0229
G1 X143.037 Y82.2 E.03965
G1 X143.283 Y81.066 E.03528
G1 X143.517 Y80.199 E.02733
G1 X143.946 Y78.899 E.04162
G1 X144.195 Y78.258 E.02091
G1 X144.489 Y77.572 E.0227
G1 X145.064 Y76.395 E.03985
G1 X145.633 Y75.392 E.03508
G1 X146.118 Y74.628 E.02753
G1 X146.915 Y73.515 E.04162
G1 X147.343 Y72.977 E.02091
G1 X147.824 Y72.415 E.02249
G1 X148.627 Y71.562 E.03563
M204 S1000
G1 X148.566 Y71.131 F10800
;WIPE_START
G1 F8640
G1 X149.565 Y70.673 E-.29832
G1 X150.26 Y70.085 E-.21032
G1 X150.939 Y69.561 E-.19809
G1 X151.921 Y68.874 E-.27652
G1 X152.495 Y68.512 E-.15674
;WIPE_END
G1 E-.06 F2100
G1 Z.4 F720
G1 X135.312 Y56.588 F10800
G1 Z.2 F720
G1 E1.2 F2100
M204 S800
;TYPE:Perimeter
G1 F1200
G1 X135.312 Y113.588 E1.73358
G1 X149.734 Y113.588 E.43863
G1 X150.046 Y113.615 E.0095
G1 X150.381 Y113.705 E.01055
G1 X150.695 Y113.852 E.01055
G1 X150.979 Y114.051 E.01055
G1 X151.224 Y114.296 E.01055
G1 X151.423 Y114.58 E.01055
G1 X151.57 Y114.894 E.01055
G1 X151.66 Y115.229 E.01055
G1 X151.687 Y115.541 E.0095
G1 X151.687 Y151.609 E1.09698
G1 X151.66 Y151.921 E.0095
G1 X151.57 Y152.256 E.01055
G1 X151.423 Y152.57 E.01055
G1 X151.224 Y152.854 E.01055
G1 X150.979 Y153.099 E.01055
G1 X150.695 Y153.298 E.01055
G1 X150.381 Y153.445 E.01055
G1 X150.046 Y153.535 E.01055
G1 X149.734 Y153.562 E.0095
G1 X62.166 Y153.562 E2.66329
G1 X61.854 Y153.535 E.0095
G1 X61.519 Y153.445 E.01055
G1 X61.205 Y153.298 E.01055
G1 X60.921 Y153.1 E.01055
G1 X60.676 Y152.854 E.01055
G1 X60.477 Y152.57 E.01055
G1 X60.33 Y152.256 E.01055
G1 X60.24 Y151.921 E.01055
G1 X60.213 Y151.609 E.0095
G1 X60.214 Y116.555 E1.06612
G1 X60.224 Y116.029 E.01599
G1 X60.298 Y115.374 E.02006
G1 X60.413 Y115.186 E.00671
G1 X59.793 Y115.283 E.0191
G1 X59.282 Y115.308 E.01557
G1 X57.538 Y115.314 E.05303
G1 X57.538 Y56.588 E1.78608
G1 X135.252 Y56.588 E2.36357
M204 S1000
G1 X134.935 Y56.965 F10800
M204 S800
;TYPE:External perimeter
G1 F1200
G1 X134.935 Y113.965 E1.73358
G1 X149.718 Y113.965 E.4496
M73 P1 R139
M73 Q1 S140
G1 X149.98 Y113.988 E.008
G1 X150.251 Y114.061 E.00854
G1 X150.506 Y114.179 E.00854
G1 X150.736 Y114.34 E.00854
G1 X150.935 Y114.539 E.00854
G1 X151.096 Y114.769 E.00854
G1 X151.214 Y115.024 E.00854
G1 X151.287 Y115.295 E.00854
G1 X151.31 Y115.557 E.008
G1 X151.31 Y151.593 E1.09598
G1 X151.287 Y151.855 E.008
G1 X151.214 Y152.126 E.00854
G1 X151.096 Y152.381 E.00854
G1 X150.935 Y152.611 E.00854
G1 X150.736 Y152.81 E.00854
G1 X150.506 Y152.971 E.00854
G1 X150.251 Y153.089 E.00854
G1 X149.98 Y153.162 E.00854
G1 X149.718 Y153.185 E.008
G1 X62.182 Y153.185 E2.66228
G1 X61.92 Y153.162 E.008
G1 X61.649 Y153.089 E.00854
G1 X61.394 Y152.971 E.00854
G1 X61.164 Y152.81 E.00854
G1 X60.965 Y152.611 E.00854
G1 X60.804 Y152.381 E.00854
G1 X60.686 Y152.126 E.00854
G1 X60.613 Y151.855 E.00854
G1 X60.59 Y151.593 E.008
G1 X60.591 Y116.559 E1.06551
G1 X60.601 Y116.054 E.01536
G1 X60.663 Y115.5 E.01697
G1 X60.791 Y115.291 E.00745
G1 X60.935 Y114.951 E.01122
G1 X61.072 Y114.735 E.00778
G1 X60.701 Y114.735 E.01127
G1 X60.245 Y114.837 E.01421
G1 X59.757 Y114.907 E.01501
G1 X59.272 Y114.931 E.01477
G1 X57.915 Y114.936 E.04126
G1 X57.915 Y56.965 E1.7631
G1 X134.875 Y56.965 E2.34064
M204 S1000
M73 P1 R138
G1 X135.326 Y56.88 F10800
;WIPE_START
G1 F8640
G1 X134.88 Y61.902 E-1.14
;WIPE_END
G1 E-.06 F2100
G1 Z.4 F720
G1 X196.886 Y52.627 F10800
G1 Z.2 F720
G1 E1.2 F2100
M204 S800
;TYPE:Perimeter
G1 F1200
G1 X196.923 Y52.764 E.00431
G1 X196.938 Y52.933 E.00516
G1 X196.938 Y157.067 E3.16708
G1 X196.923 Y157.237 E.00519
G1 X196.888 Y157.368 E.00414
G1 X196.753 Y157.603 E.00824
G1 X196.653 Y157.703 E.00429
G1 X196.423 Y157.836 E.0081
G1 X196.286 Y157.873 E.00431
G1 X196.117 Y157.888 E.00516
G1 X53.883 Y157.888 E4.32584
G1 X53.713 Y157.873 E.00519
G1 X53.582 Y157.838 E.00414
G1 X53.347 Y157.703 E.00824
G1 X53.247 Y157.603 E.00429
G1 X53.114 Y157.373 E.0081
G1 X53.077 Y157.236 E.00432
G1 X53.062 Y157.067 E.00516
G1 X53.062 Y52.933 E3.16707
G1 X53.077 Y52.764 E.00516
M73 Q1 S139
G1 X53.114 Y52.627 E.00432
G1 X53.247 Y52.397 E.00809
G1 X53.347 Y52.297 E.00429
G1 X53.577 Y52.164 E.0081
G1 X53.714 Y52.127 E.00431
G1 X53.883 Y52.112 E.00516
G1 X196.117 Y52.112 E4.32584
G1 X196.287 Y52.127 E.00519
G1 X196.542 Y52.219 E.00825
G1 X196.753 Y52.397 E.00839
G1 X196.861 Y52.573 E.00628
M204 S1000
G1 X197.242 Y52.497 F10800
M204 S800
;TYPE:External perimeter
G1 F1200
G1 X197.296 Y52.698 E.00632
G1 X197.315 Y52.917 E.00668
G1 X197.315 Y157.083 E3.16807
G1 X197.296 Y157.302 E.00669
G1 X197.244 Y157.497 E.00614
G1 X197.159 Y157.681 E.00615
G1 X197.043 Y157.846 E.00614
G1 X196.896 Y157.993 E.00632
G1 X196.731 Y158.109 E.00614
G1 X196.553 Y158.192 E.00597
G1 X196.352 Y158.246 E.00632
G1 X196.133 Y158.265 E.00668
G1 X53.867 Y158.265 E4.32683
G1 X53.648 Y158.246 E.00669
G1 X53.453 Y158.194 E.00615
G1 X53.269 Y158.109 E.00615
G1 X53.104 Y157.993 E.00614
G1 X52.957 Y157.846 E.00632
G1 X52.841 Y157.681 E.00614
G1 X52.758 Y157.503 E.00597
G1 X52.704 Y157.302 E.00632
G1 X52.685 Y157.083 E.00668
G1 X52.685 Y52.917 E3.16807
G1 X52.704 Y52.698 E.00668
G1 X52.758 Y52.497 E.00632
G1 X52.841 Y52.319 E.00597
G1 X52.957 Y52.154 E.00614
G1 X53.104 Y52.007 E.00632
G1 X53.269 Y51.891 E.00614
G1 X53.447 Y51.808 E.00597
G1 X53.648 Y51.754 E.00632
G1 X53.867 Y51.735 E.00668
G1 X196.133 Y51.735 E4.32683
G1 X196.352 Y51.754 E.00669
G1 X196.547 Y51.806 E.00614
G1 X196.731 Y51.891 E.00615
G1 X196.896 Y52.007 E.00614
G1 X197.043 Y52.154 E.00632
G1 X197.159 Y52.319 E.00614
G1 X197.216 Y52.443 E.00415
M204 S1000
G1 X197.108 Y52.657 F10800
;WIPE_START
G1 F8640
G1 X197.296 Y52.698 E-.06171
G1 X197.315 Y52.917 E-.05072
G1 X197.315 Y57.367 E-1.02757
;WIPE_END
G1 E-.06 F2100
G1 Z.4 F720
